X:1
T:Glamorganshire, 87.87 D
T:Glamorganshire, 87.87 D
T:John Robson Sweney, 1882
T:Public Domain Courtesy of the Cyber Hymnal™
C:John Robson Sweney, 1882
Z:Public Domain
Z:Courtesy of the Cyber Hymnal™
%%score ( 1 2 ) ( 3 4 )
L:1/8
Q:1/4=92
M:3/4
K:G
V:1 treble 
V:2 treble 
V:3 bass 
V:4 bass 
V:1
 [DB]>[CA] | [B,G]3 [B,D] [CE]>[B,D] | [B,D] [B,G]3 [DG]>[DG] | [DA]3 [DB] [Dc]>[DB] | %4
 [DA]4 [DB]>[Dc] | [Dd]3 [DB] [DG]D | [CE] [CG]3 [CA]>[DB] | [Ec]3 [CE] [CF]>[CD] | %8
 [B,G]4 G>[=FG] | [Ec]3 [Ec] [EG]>[_EA] | [DB] [DB]3 [DB]>[DB] | [^CB]3 [CA] [CG]>[CE] | %12
 [CA]4 [DB]>[Dc] | [Dd]3 [DB] [DG]D | [CE] [CG]3 [CA]>[DB] | [Ec]3 [CE] [CF]>[CD] | [B,G]4 |] %17
V:2
 x2 | x6 | x6 | x6 | x6 | x5 D | x6 | x6 | x4 G3/2 x/ | x6 | x6 | x6 | x6 | x5 D | x6 | x6 | x4 |] %17
V:3
 [G,,G,]>[G,,D,] | [G,,D,]3 [G,,G,] [G,,G,]>[G,,G,] | [G,,G,] [G,,D,]3 [B,,G,]>[B,,G,] | %3
 [D,F,]3 G, [F,A,]>G, | F,4 [B,,G,]>[A,,A,] | [G,,B,]3 [G,,G,] [B,,G,][B,,G,] | %6
 [C,G,] [C,E,]3 [C,E,]>[B,,^G,] | [A,,A,]3 [C,A,] [D,A,]>[D,F,] | [G,,G,]4 G,>[B,,G,] | %9
 [C,G,]3 [C,G,] [C,C]>[C,G,] | [G,,G,] [G,,G,]3 [G,,G,]>[G,,G,] | [A,,G,]3 [A,,E,] [E,A,]>[E,G,] | %12
 F,4 [B,,G,]>[A,,A,] | [G,,B,]3 [G,,G,] [B,,G,][B,,G,] | [C,G,] [C,E,]3 [C,E,]>[B,,^G,] | %15
 [A,,A,]3 [C,A,] [D,A,]>[D,F,] | [G,,G,]4 |] %17
V:4
 x2 | x6 | x6 | x3 G, x/ G,/ x | (D,3 C,) x2 | x6 | x6 | x6 | x4 G,3/2 x/ | x6 | x6 | x6 | %12
 (D,3 C,) x2 | x6 | x6 | x6 | x4 |] %17

